public/img/form-vk.svg

<svg width="16" height="16" viewBox="0 0 16 16" fill="none" xmlns="http://www.w3.org/2000/svg">
<g clip-path="url(#clip0)">
<path d="M15.8574 11.5782C15.8144 11.5062 15.5484 10.9282 14.2683 9.7401C12.9282 8.49601 13.1082 8.69802 14.7223 6.54686C15.7054 5.23677 16.0984 4.43671 15.9754 4.09468C15.8584 3.76866 15.1353 3.85466 15.1353 3.85466L12.7312 3.86866C12.7312 3.86866 12.5531 3.84466 12.4201 3.92367C12.2911 4.00167 12.2081 4.18169 12.2081 4.18169C12.2081 4.18169 11.8271 5.19576 11.319 6.05783C10.248 7.87696 9.81894 7.97297 9.64393 7.85996C9.2369 7.59694 9.3389 6.80188 9.3389 6.23784C9.3389 4.47471 9.60592 3.73965 8.81787 3.54964C8.55585 3.48664 8.36383 3.44463 7.69478 3.43763C6.83672 3.42863 6.10967 3.44063 5.69864 3.64165C5.42462 3.77566 5.2136 4.07468 5.34261 4.09168C5.50162 4.11268 5.86165 4.18869 6.05266 4.44871C6.29968 4.78373 6.29068 5.53779 6.29068 5.53779C6.29068 5.53779 6.43269 7.61294 5.95966 7.87096C5.63463 8.04797 5.1896 7.68695 4.23453 6.03582C3.7455 5.19076 3.37547 4.25569 3.37547 4.25569C3.37547 4.25569 3.30446 4.08168 3.17745 3.98867C3.02344 3.87566 2.80743 3.83966 2.80743 3.83966L0.521261 3.85366C0.521261 3.85366 0.178236 3.86366 0.0522271 4.01267C-0.0597811 4.14568 0.0432264 4.4197 0.0432264 4.4197C0.0432264 4.4197 1.83336 8.60702 3.8595 10.7182C5.71864 12.6533 7.82879 12.5263 7.82879 12.5263H8.78486C8.78486 12.5263 9.07388 12.4943 9.2209 12.3353C9.35691 12.1893 9.35191 11.9153 9.35191 11.9153C9.35191 11.9153 9.3329 10.6322 9.92895 10.4432C10.516 10.2571 11.27 11.6832 12.0691 12.2323C12.6731 12.6473 13.1322 12.5563 13.1322 12.5563L15.2693 12.5263C15.2693 12.5263 16.3874 12.4573 15.8574 11.5782Z" fill="#333333"/>
</g>
<defs>
<clipPath id="clip0">
<rect width="16" height="16" fill="white"/>
</clipPath>
</defs>
</svg>

<svg width="16" height="16" fill="none" xmlns="http://www.w3.org/2000/svg"><g clip-path="url(#clip0)"><path d="M15.857 11.578c-.043-.072-.309-.65-1.589-1.838-1.34-1.244-1.16-1.042.454-3.193.983-1.31 1.376-2.11 1.253-2.452-.117-.326-.84-.24-.84-.24l-2.404.014s-.178-.024-.31.055c-.13.078-.213.258-.213.258s-.38 1.014-.889 1.876c-1.071 1.819-1.5 1.915-1.675 1.802-.407-.263-.305-1.058-.305-1.622 0-1.763.267-2.498-.521-2.688-.262-.063-.454-.105-1.123-.112-.858-.01-1.585.003-1.996.204-.274.134-.485.433-.356.45.159.02.519.097.71.357.247.335.238 1.089.238 1.089s.142 2.075-.331 2.333c-.325.177-.77-.184-1.725-1.835-.49-.845-.86-1.78-.86-1.78s-.07-.174-.198-.267a.997.997 0 00-.37-.15l-2.286.015s-.343.01-.469.159c-.112.133-.009.407-.009.407s1.79 4.187 3.817 6.298c1.859 1.935 3.969 1.808 3.969 1.808h.956s.289-.032.436-.19c.136-.147.13-.42.13-.42s-.018-1.284.578-1.473c.587-.186 1.341 1.24 2.14 1.79.604.414 1.063.323 1.063.323l2.137-.03s1.118-.069.588-.948z" fill="#333"/></g><defs><clipPath id="clip0"><path fill="#fff" d="M0 0h16v16H0z"/></clipPath></defs></svg>
